icons/mobile/24/svg/sync-tabs-24.svg

<!-- This Source Code Form is subject to the terms of the Mozilla Public
   - License, v. 2.0. If a copy of the MPL was not distributed with this
   - file, You can obtain one at http://mozilla.org/MPL/2.0/. -->
<svg width="24" height="24" viewBox="0 0 24 24" fill="none" xmlns="http://www.w3.org/2000/svg">
    <path fill-rule="evenodd" clip-rule="evenodd" d="M21.5 10C22.8802 10 24 11.1198 24 12.5V20.5C24 21.8802 22.8802 23 21.5 23H17C15.6198 23 14.5 21.8802 14.5 20.5V12.5C14.5 11.1198 15.6198 10 17 10H21.5ZM17 11.75C16.5862 11.75 16.25 12.0862 16.25 12.5V20.25H22.25V12.5C22.25 12.0862 21.9138 11.75 21.5 11.75H17Z" fill="black" />
    <path d="M18.2754 2C19.6555 2.00021 20.7754 3.11988 20.7754 4.5V8.25H19.0254V4.5C19.0254 4.08638 18.689 3.75021 18.2754 3.75H4.75C4.33625 3.75 4 4.08625 4 4.5V14.25C4 14.6638 4.33625 15 4.75 15H12.75V18H0V16.25H3.25488C2.64593 15.7939 2.25 15.069 2.25 14.25V4.5C2.25 3.11975 3.36975 2 4.75 2H18.2754Z" fill="black" />
</svg>

<!-- This Source Code Form is subject to the terms of the Mozilla Public
   - License, v. 2.0. If a copy of the MPL was not distributed with this
   - file, You can obtain one at http://mozilla.org/MPL/2.0/. -->
<svg xmlns="http://www.w3.org/2000/svg" width="24" height="24" fill="none" viewBox="0 0 24 24">
    <path fill="#000" fill-rule="evenodd" d="M21.5 10a2.5 2.5 0 0 1 2.5 2.5v8a2.5 2.5 0 0 1-2.5 2.5H17a2.5 2.5 0 0 1-2.5-2.5v-8A2.5 2.5 0 0 1 17 10zM17 11.75a.75.75 0 0 0-.75.75v7.75h6V12.5a.75.75 0 0 0-.75-.75z" clip-rule="evenodd" />
    <path fill="#000" d="M18.275 2a2.5 2.5 0 0 1 2.5 2.5v3.75h-1.75V4.5a.75.75 0 0 0-.75-.75H4.75A.75.75 0 0 0 4 4.5v9.75c0 .414.336.75.75.75h8v3H0v-1.75h3.255a2.5 2.5 0 0 1-1.005-2V4.5A2.5 2.5 0 0 1 4.75 2z" />
</svg>
